X: 072
M: C|
L: 1/8
K: Am
EAAB (c/d/e) (dc) | BGdG eGdG | cBAB cdea | gedB A/A/A A :|
e |\
aeab abc'a | (ge).d.c (Bd).G.d | aeab ac'ba | gedB A/A/A (Ae) |
(ae).a.b (ab).c'.a | gedc Bd Gd | ceAB cdea | gedB A/A/A A |]


